X:1
T:[ID 1-120b]
T:[ID 1-120b]
T:Bezeichnung standardisiert: Allegro Menuet Allegro Men.
T:Urheber unbekannt Datum in der hier transkribierten schriftlichen Quelle: vermutlich vor 1767
C:Urheber unbekannt
C:Datum in der hier transkribierten schriftlichen Quelle: vermutlich vor 1767
L:1/8
M:3/4
K:A
V:1 treble 
V:1
 (3agf e2 d2 | (c/B/)A{A} B4 | (3Ace (3c'ba (3gfe | d2{c} B4 | (c/B/)A aaaa | g/f/e ^dddd | %6
 eagfe^d | e6 :: e/f/=g Tg2 Tg2 | =gf f4 | f/=g/a Ta2 Ta2 | ag g4 | e/g/b d'd'd'd' | c'2 bagf | %14
 ed' c'2 d'b |{b} a6 :| %16

